X:8781
T:L'amour secret
R:Gavotte
O:Alsace - Elsass
A:Bischwiller 1890
S:
B:La tradition Alsacienne.
Z:transcription (partition) : eric.forgeot@caramail.com
N:p.60
N:
M:C
L:1/4
Q:1/4=130
K:C
C | C E G c | c B z d | (d/B/) (G/F/) FF | F E z G | ^F ccB |
BA c2 | B/<d/ B/<G/ A/<c/ -c/^F/ | ^FG zG | G/E/F (3d/c/B/ (3A/G/F/ | F E z A |
^G A d c | cB z/z/4 G/4 d/>B/ | c/G/F/E/ F/A/C/A/ | G/E/D/C/ F2 |\
 E/<G/ E/<C/ D/<F/ -F/B,/ | B, C z ||


